icons/modern/unlocked.svg

<svg width="32" height="32" viewBox="0 0 32 32" fill="none" xmlns="http://www.w3.org/2000/svg">
<g filter="url(#filter0_i_18_23558)">
<path d="M19.4453 14.0703V8.50781C19.4453 5.73776 21.6524 3.49219 24.375 3.49219C27.0976 3.49219 29.3047 5.73776 29.3047 8.50781V9.59369" stroke="#C2C2C6" stroke-width="2.75" stroke-linecap="round"/>
</g>
<path d="M19.4453 14.0703V8.50781C19.4453 5.73776 21.6524 3.49219 24.375 3.49219C27.0976 3.49219 29.3047 5.73776 29.3047 8.50781V9.59369" stroke="url(#paint0_radial_18_23558)" stroke-width="2.75" stroke-linecap="round"/>
<path d="M19.4453 14.0703V8.50781C19.4453 5.73776 21.6524 3.49219 24.375 3.49219C27.0976 3.49219 29.3047 5.73776 29.3047 8.50781V9.59369" stroke="url(#paint1_radial_18_23558)" stroke-width="2.75" stroke-linecap="round"/>
<g filter="url(#filter1_f_18_23558)">
<path d="M19.8828 13.7578V8.19531C19.8828 5.42526 22.0899 3.17969 24.8125 3.17969C27.5351 3.17969 29.7422 5.42526 29.7422 8.19531V9.28119" stroke="url(#paint2_radial_18_23558)" stroke-linecap="round"/>
<path d="M19.8828 13.7578V8.19531C19.8828 5.42526 22.0899 3.17969 24.8125 3.17969C27.5351 3.17969 29.7422 5.42526 29.7422 8.19531V9.28119" stroke="url(#paint3_radial_18_23558)" stroke-linecap="round"/>
</g>
<g filter="url(#filter2_iiii_18_23558)">
<rect x="2.4375" y="11.0547" width="21.9375" height="18.8438" rx="3" fill="url(#paint4_linear_18_23558)"/>
</g>
<rect x="2.4375" y="11.0547" width="21.9375" height="18.8438" rx="3" fill="url(#paint5_radial_18_23558)"/>
<rect x="2.4375" y="11.0547" width="21.9375" height="18.8438" rx="3" fill="url(#paint6_linear_18_23558)"/>
<rect x="2.4375" y="11.0547" width="21.9375" height="18.8438" rx="3" fill="url(#paint7_radial_18_23558)"/>
<g filter="url(#filter3_f_18_23558)">
<path d="M14.8047 20.3915C15.5239 19.9273 16 19.1189 16 18.1992C16 16.7592 14.8326 15.5918 13.3926 15.5918C11.9525 15.5918 10.7852 16.7592 10.7852 18.1992C10.7852 19.1305 11.2734 19.9477 12.0078 20.409V23.7032C12.0078 24.4755 12.6339 25.1016 13.4062 25.1016C14.1786 25.1016 14.8047 24.4755 14.8047 23.7032V20.3915Z" stroke="url(#paint8_linear_18_23558)" stroke-width="1.75"/>
<path d="M14.8047 20.3915C15.5239 19.9273 16 19.1189 16 18.1992C16 16.7592 14.8326 15.5918 13.3926 15.5918C11.9525 15.5918 10.7852 16.7592 10.7852 18.1992C10.7852 19.1305 11.2734 19.9477 12.0078 20.409V23.7032C12.0078 24.4755 12.6339 25.1016 13.4062 25.1016C14.1786 25.1016 14.8047 24.4755 14.8047 23.7032V20.3915Z" stroke="url(#paint9_linear_18_23558)" stroke-width="1.75"/>
</g>
<path d="M14.8047 20.3915C15.5239 19.9273 16 19.1189 16 18.1992C16 16.7592 14.8326 15.5918 13.3926 15.5918C11.9525 15.5918 10.7852 16.7592 10.7852 18.1992C10.7852 19.1305 11.2734 19.9477 12.0078 20.409V23.7032C12.0078 24.4755 12.6339 25.1016 13.4062 25.1016C14.1786 25.1016 14.8047 24.4755 14.8047 23.7032V20.3915Z" fill="url(#paint10_radial_18_23558)"/>
<defs>
<filter id="filter0_i_18_23558" x="18.0703" y="2.11719" width="13.6094" height="13.3281" filterUnits="userSpaceOnUse" color-interpolation-filters="sRGB">
<feFlood flood-opacity="0" result="BackgroundImageFix"/>
<feBlend mode="normal" in="SourceGraphic" in2="BackgroundImageFix" result="shape"/>
<feColorMatrix in="SourceAlpha" type="matrix" values="0 0 0 0 0 0 0 0 0 0 0 0 0 0 0 0 0 0 127 0" result="hardAlpha"/>
<feOffset dx="1"/>
<feGaussianBlur stdDeviation="0.5"/>
<feComposite in2="hardAlpha" operator="arithmetic" k2="-1" k3="1"/>
<feColorMatrix type="matrix" values="0 0 0 0 0.560784 0 0 0 0 0.556863 0 0 0 0 0.576471 0 0 0 1 0"/>
<feBlend mode="normal" in2="shape" result="effect1_innerShadow_18_23558"/>
</filter>
<filter id="filter1_f_18_23558" x="18.6328" y="1.92969" width="12.3594" height="13.0781" filterUnits="userSpaceOnUse" color-interpolation-filters="sRGB">
<feFlood flood-opacity="0" result="BackgroundImageFix"/>
<feBlend mode="normal" in="SourceGraphic" in2="BackgroundImageFix" result="shape"/>
<feGaussianBlur stdDeviation="0.375" result="effect1_foregroundBlur_18_23558"/>
</filter>
<filter id="filter2_iiii_18_23558" x="1.6875" y="10.3047" width="23.4375" height="20.3438" filterUnits="userSpaceOnUse" color-interpolation-filters="sRGB">
<feFlood flood-opacity="0" result="BackgroundImageFix"/>
<feBlend mode="normal" in="SourceGraphic" in2="BackgroundImageFix" result="shape"/>
<feColorMatrix in="SourceAlpha" type="matrix" values="0 0 0 0 0 0 0 0 0 0 0 0 0 0 0 0 0 0 127 0" result="hardAlpha"/>
<feOffset dy="-0.75"/>
<feGaussianBlur stdDeviation="0.375"/>
<feComposite in2="hardAlpha" operator="arithmetic" k2="-1" k3="1"/>
<feColorMatrix type="matrix" values="0 0 0 0 0.898039 0 0 0 0 0.364706 0 0 0 0 0.423529 0 0 0 1 0"/>
<feBlend mode="normal" in2="shape" result="effect1_innerShadow_18_23558"/>
<feColorMatrix in="SourceAlpha" type="matrix" values="0 0 0 0 0 0 0 0 0 0 0 0 0 0 0 0 0 0 127 0" result="hardAlpha"/>
<feOffset dx="-1"/>
<feGaussianBlur stdDeviation="0.375"/>
<feComposite in2="hardAlpha" operator="arithmetic" k2="-1" k3="1"/>
<feColorMatrix type="matrix" values="0 0 0 0 1 0 0 0 0 0.772549 0 0 0 0 0.364706 0 0 0 1 0"/>
<feBlend mode="normal" in2="effect1_innerShadow_18_23558" result="effect2_innerShadow_18_23558"/>
<feColorMatrix in="SourceAlpha" type="matrix" values="0 0 0 0 0 0 0 0 0 0 0 0 0 0 0 0 0 0 127 0" result="hardAlpha"/>
<feOffset dy="1"/>
<feGaussianBlur stdDeviation="0.375"/>
<feComposite in2="hardAlpha" operator="arithmetic" k2="-1" k3="1"/>
<feColorMatrix type="matrix" values="0 0 0 0 1 0 0 0 0 0.843137 0 0 0 0 0.266667 0 0 0 1 0"/>
<feBlend mode="normal" in2="effect2_innerShadow_18_23558" result="effect3_innerShadow_18_23558"/>
<feColorMatrix in="SourceAlpha" type="matrix" values="0 0 0 0 0 0 0 0 0 0 0 0 0 0 0 0 0 0 127 0" result="hardAlpha"/>
<feOffset dx="0.75"/>
<feGaussianBlur stdDeviation="0.375"/>
<feComposite in2="hardAlpha" operator="arithmetic" k2="-1" k3="1"/>
<feColorMatrix type="matrix" values="0 0 0 0 0.729412 0 0 0 0 0.478431 0 0 0 0 0.207843 0 0 0 1 0"/>
<feBlend mode="normal" in2="effect3_innerShadow_18_23558" result="effect4_innerShadow_18_23558"/>
</filter>
<filter id="filter3_f_18_23558" x="9.41016" y="14.2168" width="7.96484" height="12.2598" filterUnits="userSpaceOnUse" color-interpolation-filters="sRGB">
<feFlood flood-opacity="0" result="BackgroundImageFix"/>
<feBlend mode="normal" in="SourceGraphic" in2="BackgroundImageFix" result="shape"/>
<feGaussianBlur stdDeviation="0.25" result="effect1_foregroundBlur_18_23558"/>
</filter>
<radialGradient id="paint0_radial_18_23558" cx="0" cy="0" r="1" gradientUnits="userSpaceOnUse" gradientTransform="translate(24.5312 8.15619) rotate(-91.6531) scale(5.41626 5.81234)">
<stop offset="0.556487" stop-color="#AB83C0"/>
<stop offset="1" stop-color="#CBBBDC" stop-opacity="0"/>
</radialGradient>
<radialGradient id="paint1_radial_18_23558" cx="0" cy="0" r="1" gradientUnits="userSpaceOnUse" gradientTransform="translate(29.3047 11.4062) rotate(-90) scale(2.21875 8.81238)">
<stop offset="0.110772" stop-color="#B57FD6"/>
<stop offset="1" stop-color="#B57FD6" stop-opacity="0"/>
</radialGradient>
<radialGradient id="paint2_radial_18_23558" cx="0" cy="0" r="1" gradientUnits="userSpaceOnUse" gradientTransform="translate(30.0361 4.53779) rotate(136.625) scale(5.05367 6.94355)">
<stop offset="0.215771" stop-color="#EDECF3"/>
<stop offset="1" stop-color="#EDECF3" stop-opacity="0"/>
</radialGradient>
<radialGradient id="paint3_radial_18_23558" cx="0" cy="0" r="1" gradientUnits="userSpaceOnUse" gradientTransform="translate(18.7188 16.8124) rotate(-80.1017) scale(9.45321 6.82288)">
<stop stop-color="#EDECF3"/>
<stop offset="1" stop-color="#EDECF3" stop-opacity="0"/>
</radialGradient>
<linearGradient id="paint4_linear_18_23558" x1="7.5625" y1="14.1172" x2="14.5" y2="29.8984" gradientUnits="userSpaceOnUse">
<stop stop-color="#FFC74E"/>
<stop offset="1" stop-color="#F7864E"/>
</linearGradient>
<radialGradient id="paint5_radial_18_23558" cx="0" cy="0" r="1" gradientUnits="userSpaceOnUse" gradientTransform="translate(23.8125 29.8984) rotate(-132.274) scale(3.25195 7.57598)">
<stop stop-color="#FF8650"/>
<stop offset="1" stop-color="#FF8650" stop-opacity="0"/>
</radialGradient>
<linearGradient id="paint6_linear_18_23558" x1="13.4063" y1="10.7422" x2="13.4062" y2="12.2422" gradientUnits="userSpaceOnUse">
<stop stop-color="#F3D04E"/>
<stop offset="1" stop-color="#F3D04E" stop-opacity="0"/>
</linearGradient>
<radialGradient id="paint7_radial_18_23558" cx="0" cy="0" r="1" gradientUnits="userSpaceOnUse" gradientTransform="translate(24.0625 11.0547) rotate(126.254) scale(2.32513 5.25171)">
<stop stop-color="#FFF760"/>
<stop offset="1" stop-color="#FFF760" stop-opacity="0"/>
</radialGradient>
<linearGradient id="paint8_linear_18_23558" x1="16.5312" y1="21.6797" x2="12.6562" y2="21.6797" gradientUnits="userSpaceOnUse">
<stop offset="0.330645" stop-color="#D98A40"/>
<stop offset="1" stop-color="#D98A40" stop-opacity="0"/>
</linearGradient>
<linearGradient id="paint9_linear_18_23558" x1="10.2812" y1="20.7422" x2="13" y2="20.7422" gradientUnits="userSpaceOnUse">
<stop stop-color="#FFCD63"/>
<stop offset="1" stop-color="#FFCD63" stop-opacity="0"/>
</linearGradient>
<radialGradient id="paint10_radial_18_23558" cx="0" cy="0" r="1" gradientUnits="userSpaceOnUse" gradientTransform="translate(10.7852 18.6172) rotate(34.0609) scale(5.69121 7.82719)">
<stop offset="0.21669" stop-color="#564F80"/>
<stop offset="1" stop-color="#473154"/>
</radialGradient>
</defs>
</svg>

<svg width="32" height="32" fill="none" xmlns="http://www.w3.org/2000/svg"><g filter="url(#a)"><path d="M19.445 14.07V8.508c0-2.77 2.207-5.016 4.93-5.016s4.93 2.246 4.93 5.016v1.086" stroke="#C2C2C6" stroke-width="2.75" stroke-linecap="round"/></g><path d="M19.445 14.07V8.508c0-2.77 2.207-5.016 4.93-5.016s4.93 2.246 4.93 5.016v1.086" stroke="url(#b)" stroke-width="2.75" stroke-linecap="round"/><path d="M19.445 14.07V8.508c0-2.77 2.207-5.016 4.93-5.016s4.93 2.246 4.93 5.016v1.086" stroke="url(#c)" stroke-width="2.75" stroke-linecap="round"/><g filter="url(#d)" stroke-linecap="round"><path d="M19.883 13.758V8.195c0-2.77 2.207-5.015 4.93-5.015 2.722 0 4.93 2.245 4.93 5.015v1.086" stroke="url(#e)"/><path d="M19.883 13.758V8.195c0-2.77 2.207-5.015 4.93-5.015 2.722 0 4.93 2.245 4.93 5.015v1.086" stroke="url(#f)"/></g><g filter="url(#g)"><rect x="2.438" y="11.055" width="21.938" height="18.844" rx="3" fill="url(#h)"/></g><rect x="2.438" y="11.055" width="21.938" height="18.844" rx="3" fill="url(#i)"/><rect x="2.438" y="11.055" width="21.938" height="18.844" rx="3" fill="url(#j)"/><rect x="2.438" y="11.055" width="21.938" height="18.844" rx="3" fill="url(#k)"/><g filter="url(#l)" stroke-width="1.75"><path d="M14.805 20.392a2.607 2.607 0 1 0-2.797.017v3.294a1.398 1.398 0 0 0 2.797 0v-3.311Z" stroke="url(#m)"/><path d="M14.805 20.392a2.607 2.607 0 1 0-2.797.017v3.294a1.398 1.398 0 0 0 2.797 0v-3.311Z" stroke="url(#n)"/></g><path d="M14.805 20.392a2.607 2.607 0 1 0-2.797.017v3.294a1.398 1.398 0 0 0 2.797 0v-3.311Z" fill="url(#o)"/><defs><radialGradient id="b" cx="0" cy="0" r="1" gradientUnits="userSpaceOnUse" gradientTransform="matrix(-.15625 -5.414 5.80992 -.16767 24.531 8.156)"><stop offset=".556" stop-color="#AB83C0"/><stop offset="1" stop-color="#CBBBDC" stop-opacity="0"/></radialGradient><radialGradient id="c" cx="0" cy="0" r="1" gradientUnits="userSpaceOnUse" gradientTransform="matrix(0 -2.21875 8.81238 0 29.305 11.406)"><stop offset=".111" stop-color="#B57FD6"/><stop offset="1" stop-color="#B57FD6" stop-opacity="0"/></radialGradient><radialGradient id="e" cx="0" cy="0" r="1" gradientUnits="userSpaceOnUse" gradientTransform="matrix(-3.67338 3.47071 -4.76862 -5.04709 30.036 4.538)"><stop offset=".216" stop-color="#EDECF3"/><stop offset="1" stop-color="#EDECF3" stop-opacity="0"/></radialGradient><radialGradient id="f" cx="0" cy="0" r="1" gradientUnits="userSpaceOnUse" gradientTransform="rotate(-80.102 19.36 -2.728) scale(9.45321 6.82288)"><stop stop-color="#EDECF3"/><stop offset="1" stop-color="#EDECF3" stop-opacity="0"/></radialGradient><radialGradient id="i" cx="0" cy="0" r="1" gradientUnits="userSpaceOnUse" gradientTransform="matrix(-2.18751 -2.40624 5.60574 -5.09619 23.813 29.898)"><stop stop-color="#FF8650"/><stop offset="1" stop-color="#FF8650" stop-opacity="0"/></radialGradient><radialGradient id="k" cx="0" cy="0" r="1" gradientUnits="userSpaceOnUse" gradientTransform="rotate(126.254 9.23 11.624) scale(2.32513 5.25171)"><stop stop-color="#FFF760"/><stop offset="1" stop-color="#FFF760" stop-opacity="0"/></radialGradient><radialGradient id="o" cx="0" cy="0" r="1" gradientUnits="userSpaceOnUse" gradientTransform="rotate(34.061 -24.997 26.914) scale(5.69121 7.82719)"><stop offset=".217" stop-color="#564F80"/><stop offset="1" stop-color="#473154"/></radialGradient><linearGradient id="h" x1="7.563" y1="14.117" x2="14.5" y2="29.898" gradientUnits="userSpaceOnUse"><stop stop-color="#FFC74E"/><stop offset="1" stop-color="#F7864E"/></linearGradient><linearGradient id="j" x1="13.406" y1="10.742" x2="13.406" y2="12.242" gradientUnits="userSpaceOnUse"><stop stop-color="#F3D04E"/><stop offset="1" stop-color="#F3D04E" stop-opacity="0"/></linearGradient><linearGradient id="m" x1="16.531" y1="21.68" x2="12.656" y2="21.68" gradientUnits="userSpaceOnUse"><stop offset=".331" stop-color="#D98A40"/><stop offset="1" stop-color="#D98A40" stop-opacity="0"/></linearGradient><linearGradient id="n" x1="10.281" y1="20.742" x2="13" y2="20.742" gradientUnits="userSpaceOnUse"><stop stop-color="#FFCD63"/><stop offset="1" stop-color="#FFCD63" stop-opacity="0"/></linearGradient><filter id="a" x="18.07" y="2.117" width="13.609" height="13.328" filterUnits="userSpaceOnUse" color-interpolation-filters="sRGB"><feFlood flood-opacity="0" result="BackgroundImageFix"/><feBlend in="SourceGraphic" in2="BackgroundImageFix" result="shape"/><feColorMatrix in="SourceAlpha" values="0 0 0 0 0 0 0 0 0 0 0 0 0 0 0 0 0 0 127 0" result="hardAlpha"/><feOffset dx="1"/><feGaussianBlur stdDeviation=".5"/><feComposite in2="hardAlpha" operator="arithmetic" k2="-1" k3="1"/><feColorMatrix values="0 0 0 0 0.560784 0 0 0 0 0.556863 0 0 0 0 0.576471 0 0 0 1 0"/><feBlend in2="shape" result="effect1_innerShadow_18_23558"/></filter><filter id="d" x="18.633" y="1.93" width="12.359" height="13.078" filterUnits="userSpaceOnUse" color-interpolation-filters="sRGB"><feFlood flood-opacity="0" result="BackgroundImageFix"/><feBlend in="SourceGraphic" in2="BackgroundImageFix" result="shape"/><feGaussianBlur stdDeviation=".375" result="effect1_foregroundBlur_18_23558"/></filter><filter id="g" x="1.688" y="10.305" width="23.438" height="20.344" filterUnits="userSpaceOnUse" color-interpolation-filters="sRGB"><feFlood flood-opacity="0" result="BackgroundImageFix"/><feBlend in="SourceGraphic" in2="BackgroundImageFix" result="shape"/><feColorMatrix in="SourceAlpha" values="0 0 0 0 0 0 0 0 0 0 0 0 0 0 0 0 0 0 127 0" result="hardAlpha"/><feOffset dy="-.75"/><feGaussianBlur stdDeviation=".375"/><feComposite in2="hardAlpha" operator="arithmetic" k2="-1" k3="1"/><feColorMatrix values="0 0 0 0 0.898039 0 0 0 0 0.364706 0 0 0 0 0.423529 0 0 0 1 0"/><feBlend in2="shape" result="effect1_innerShadow_18_23558"/><feColorMatrix in="SourceAlpha" values="0 0 0 0 0 0 0 0 0 0 0 0 0 0 0 0 0 0 127 0" result="hardAlpha"/><feOffset dx="-1"/><feGaussianBlur stdDeviation=".375"/><feComposite in2="hardAlpha" operator="arithmetic" k2="-1" k3="1"/><feColorMatrix values="0 0 0 0 1 0 0 0 0 0.772549 0 0 0 0 0.364706 0 0 0 1 0"/><feBlend in2="effect1_innerShadow_18_23558" result="effect2_innerShadow_18_23558"/><feColorMatrix in="SourceAlpha" values="0 0 0 0 0 0 0 0 0 0 0 0 0 0 0 0 0 0 127 0" result="hardAlpha"/><feOffset dy="1"/><feGaussianBlur stdDeviation=".375"/><feComposite in2="hardAlpha" operator="arithmetic" k2="-1" k3="1"/><feColorMatrix values="0 0 0 0 1 0 0 0 0 0.843137 0 0 0 0 0.266667 0 0 0 1 0"/><feBlend in2="effect2_innerShadow_18_23558" result="effect3_innerShadow_18_23558"/><feColorMatrix in="SourceAlpha" values="0 0 0 0 0 0 0 0 0 0 0 0 0 0 0 0 0 0 127 0" result="hardAlpha"/><feOffset dx=".75"/><feGaussianBlur stdDeviation=".375"/><feComposite in2="hardAlpha" operator="arithmetic" k2="-1" k3="1"/><feColorMatrix values="0 0 0 0 0.729412 0 0 0 0 0.478431 0 0 0 0 0.207843 0 0 0 1 0"/><feBlend in2="effect3_innerShadow_18_23558" result="effect4_innerShadow_18_23558"/></filter><filter id="l" x="9.41" y="14.217" width="7.965" height="12.26" filterUnits="userSpaceOnUse" color-interpolation-filters="sRGB"><feFlood flood-opacity="0" result="BackgroundImageFix"/><feBlend in="SourceGraphic" in2="BackgroundImageFix" result="shape"/><feGaussianBlur stdDeviation=".25" result="effect1_foregroundBlur_18_23558"/></filter></defs></svg>
